assets/azurepartnernamespace/original.svg

<svg height="18" viewBox="0 0 18 18" width="18" xmlns="http://www.w3.org/2000/svg" xmlns:xlink="http://www.w3.org/1999/xlink"><linearGradient id="a" gradientTransform="matrix(1 0 0 -1 0 847.139)" gradientUnits="userSpaceOnUse" x1="3.907" x2="3.907" y1="835.989" y2="840.232"><stop offset="0" stop-color="#773adc"/><stop offset="1" stop-color="#a67af4"/></linearGradient><g fill="#a3a3a3"><path d="m.613.993h1.363v3.782a.306.306 0 0 1 -.306.306h-1.363a.306.306 0 0 1 -.307-.306v-3.169a.6.6 0 0 1 .592-.613z"/><path d="m.613.993h1.363v3.782a.306.306 0 0 1 -.306.306h-1.363a.306.306 0 0 1 -.307-.306v-3.169a.6.6 0 0 1 .592-.613z" opacity=".5"/><path d="m16.025.993h1.362a.6.6 0 0 1 .6.6v3.18a.306.306 0 0 1 -.306.306h-1.35a.306.306 0 0 1 -.306-.306z"/><path d="m16.025.993h1.362a.6.6 0 0 1 .6.6v3.18a.306.306 0 0 1 -.306.306h-1.35a.306.306 0 0 1 -.306-.306z" opacity=".5"/></g><path d="m17.989 1.585v1.32h-17.957v-1.32a.6.6 0 0 1 .6-.6h16.755a.6.6 0 0 1 .602.6" fill="#949494"/><path d="m.307 12.9h1.363a.306.306 0 0 1 .306.306v3.813h-1.363a.6.6 0 0 1 -.613-.593v-3.201a.306.306 0 0 1 .285-.325z" fill="#a3a3a3"/><path d="m.307 12.9h1.363a.306.306 0 0 1 .306.306v3.813h-1.363a.6.6 0 0 1 -.613-.593v-3.201a.306.306 0 0 1 .285-.325z" fill="#a3a3a3" opacity=".5"/><path d="m16.331 12.9h1.363a.306.306 0 0 1 .306.3v3.169a.6.6 0 0 1 -.6.6h-1.375v-3.75a.306.306 0 0 1 .284-.327z" fill="#a3a3a3"/><path d="m16.331 12.9h1.363a.306.306 0 0 1 .306.3v3.169a.6.6 0 0 1 -.6.6h-1.375v-3.75a.306.306 0 0 1 .284-.327z" fill="#a3a3a3" opacity=".5"/><path d="m0 16.415v-1.315h17.958v1.32a.6.6 0 0 1 -.6.6h-16.758a.6.6 0 0 1 -.6-.605" fill="#949494"/><path d="m13.672 9.409v-.795h-4.963v-3.351h4.14v-.795h-4.14a.8.8 0 0 0 -.795.8v3.346h-3.531v.8h3.54v3.328a.8.8 0 0 0 .8.794h4.131v-.795h-4.136v-3.332z" fill="#0078d4"/><circle cx="14.042" cy="8.97" fill="#5ea0ef" r="1.213"/><circle cx="3.907" cy="9.008" fill="url(#a)" r="1.72"/><circle cx="12.947" cy="13.171" fill="#5ea0ef" r="1.213"/><circle cx="12.947" cy="4.829" fill="#5ea0ef" r="1.213"/>​</svg>

<svg xmlns="http://www.w3.org/2000/svg" width="18" height="18" viewBox="0 0 18 18"><defs><linearGradient id="afabc161-f396-4e7f-b876-f2c2e874649d" x1="3.907" x2="3.907" y1="835.989" y2="840.232" gradientTransform="matrix(1 0 0 -1 0 847.139)" gradientUnits="userSpaceOnUse"><stop offset="0" stop-color="#773adc"/><stop offset="1" stop-color="#a67af4"/></linearGradient></defs><path fill="#a3a3a3" d="M.613.993h1.363v3.782a.306.306 0 0 1-.306.306H.307A.306.306 0 0 1 0 4.775V1.606A.6.6 0 0 1 .592.993Z"/><path fill="#a3a3a3" d="M.613.993h1.363v3.782a.306.306 0 0 1-.306.306H.307A.306.306 0 0 1 0 4.775V1.606A.6.6 0 0 1 .592.993Z" opacity=".5"/><path fill="#a3a3a3" d="M16.025.993h1.362a.6.6 0 0 1 .6.6v3.18a.306.306 0 0 1-.306.306h-1.35a.306.306 0 0 1-.306-.306z"/><path fill="#a3a3a3" d="M16.025.993h1.362a.6.6 0 0 1 .6.6v3.18a.306.306 0 0 1-.306.306h-1.35a.306.306 0 0 1-.306-.306z" opacity=".5"/><path fill="#949494" d="M17.989 1.585v1.32H.032v-1.32a.6.6 0 0 1 .6-.6h16.755a.6.6 0 0 1 .602.6"/><path fill="#a3a3a3" d="M.307 12.9H1.67a.306.306 0 0 1 .306.306v3.813H.613A.6.6 0 0 1 0 16.426v-3.201a.306.306 0 0 1 .285-.325Z"/><path fill="#a3a3a3" d="M.307 12.9H1.67a.306.306 0 0 1 .306.306v3.813H.613A.6.6 0 0 1 0 16.426v-3.201a.306.306 0 0 1 .285-.325Z" opacity=".5"/><path fill="#a3a3a3" d="M16.331 12.9h1.363a.306.306 0 0 1 .306.3v3.169a.6.6 0 0 1-.6.6h-1.375v-3.75a.306.306 0 0 1 .284-.327Z"/><path fill="#a3a3a3" d="M16.331 12.9h1.363a.306.306 0 0 1 .306.3v3.169a.6.6 0 0 1-.6.6h-1.375v-3.75a.306.306 0 0 1 .284-.327Z" opacity=".5"/><path fill="#949494" d="M0 16.415V15.1h17.958v1.32a.6.6 0 0 1-.6.6H.6a.6.6 0 0 1-.6-.605"/><path fill="#0078d4" d="M13.672 9.409v-.795H8.709V5.263h4.14v-.795h-4.14a.8.8 0 0 0-.795.8v3.346H4.383v.8h3.54v3.328a.8.8 0 0 0 .8.794h4.131v-.795H8.718V9.409Z"/><circle cx="14.042" cy="8.97" r="1.213" fill="#5ea0ef"/><circle cx="3.907" cy="9.008" r="1.72" fill="url(#afabc161-f396-4e7f-b876-f2c2e874649d)"/><circle cx="12.947" cy="13.171" r="1.213" fill="#5ea0ef"/><circle cx="12.947" cy="4.829" r="1.213" fill="#5ea0ef"/>​</svg>
